X:1
T:The Skies Are Always Bright Up There
T:The Skies Are Always Bright Up There
T:Frank B. Smith
T:Johnson Oatman, Jr., 1904
T:Public Domain Courtesy of the Cyber Hymnal™
T:Public Domain Courtesy of the Cyber Hymnal™
C:Frank B. Smith
Z:Public Domain
Z:Courtesy of the Cyber Hymnal™
%%score ( 1 2 ) ( 3 4 )
L:1/8
Q:1/4=95
M:4/4
K:Eb
V:1 treble 
V:2 treble 
V:3 bass 
V:4 bass 
V:1
 [B,E]>[B,F] | [EG]>[EG] [EG]>[Ec] [EB]>[EG] E>[DF] | [EG]6 [DF]>[EG] | [FA]>[FA] [FA]>[GB] | %4
w: 1.~Though the|sha- dows ga- ther o’er our path- way|here, Though the|day may not be|
w: 2.~If our|hearts are break- ing o’er some loved one|gone, Still we|smile through grief and|
w: 3.~Night ne’er|draws her cur- tains o’er that peace- ful|shore, There ’tis|light for- ev- er,|
w: 4.~So through|clouds and sha- dows we will wend our|way, Till we|reach that ci- ty|
 ([FA]>[DF]) ([EG]>[FA]) | [GB]6 [EG]>[FA] | [GB]>[GB] [GB]>[GB] [Ge]>[Ad] [Bf]>[Be] | %7
w: bright * and *|fair, Yet the|thought of Heav- en brings us hope and|
w: dark * des- *|pair, For we’ll|know no sor- row in that gold- en|
w: ev- * ery- *|where; There the|gloom of mid- night we shall know no|
w: bright * and *|fair; Then we’ll|rest for- ev- er in those realms of|
 [Ac]6 [Ad]>[Ac] | [GB]>[^Fc] [GB]>[=FA] [EG]2 [DF]2 | E6 ||"^Refrain" [EB]>[FB] | %11
w: cheer, For the|skies are al- ways bright up|there.||
w: dawn, For the|skies are al- ways bright up|there.|~Oh, the|
w: more, For the|skies are al- ways bright up|there.||
w: day, For the|skies are al- ways bright up|there.||
 [Ge]>[Ge] [Ge]>[Ge] [Ad]2 [Ac]2 | B6 [EG]>[EG] | [EA]>[EA] [EA]>[Ec] [EB]2 [EG]2 | [DF]6 (GF) | %15
w: ||||
w: skies are al- ways bright up|there, Yes, the|skies are al- ways bright up|there; No *|
w: ||||
w: ||||
 E>F G>A B3 [GB] | [Ac]>[ce] [Bd]>[Ac] [GB]2 [GB]>[GB] | [Ac]>[Ac] [Ac]>[Ac] [GB]2 [Af]2 | e6 G2 |] %19
w: ||||
w: storm clouds ho- ver o’er the|ci- ty of our God, For the|skies are al- ways bright up|there. *|
w: ||||
w: ||||
V:2
 x2 | x6 E3/2 x/ | x8 | x4 | x4 | x8 | x8 | x8 | x8 | E6 || x2 | x8 | (G2 E>EDE) x2 | x8 | x6 GF | %15
 E>F G>A B3 x | x8 | x8 | G>GA>A x4 |] %19
V:3
 [E,G,]>[E,A,] | [E,B,]>[E,B,] [E,B,]>[E,A,] [E,G,]>[E,B,] [G,,B,]>[B,,B,] | %2
w: ~ ~|~ ~ ~ ~ ~ ~ ~ ~|
 [E,B,]6 [B,,B,]>[B,,B,] | [B,,B,]>[B,,B,] [B,,B,]>[B,,B,] | B,2 B,2 | [E,E]6 [E,B,]>[E,B,] | %6
w: ~ ~ ~|~ ~ ~ ~|~ ~|~ ~ ~|
 [E,E]>[E,E] [E,E]>[E,E] [E,B,]>[F,B,] [G,B,]>[G,E] | [A,E]6 [A,E]>[A,E] | %8
w: ~ ~ ~ ~ ~ ~ ~ ~|~ ~ ~|
 [E,E]>[E,E] [E,E]>[A,,C] [B,,B,]2 [B,,A,]2 | [E,G,]6 || [E,G,]>[E,A,] | %11
w: ~ ~ ~ ~ ~ ~|~|~ ~|
 [E,B,]>[E,B,] [E,B,]>[E,B,] [E,C]2 [E,D]2 | [E,E]2 [G,B,]>[G,B,] [F,A,][E,G,] [E,B,]>[E,B,] | %13
w: ~ ~ ~ ~ ~ ~|~ hal- le- lu- jah! ~ ~|
 [A,,C]>[A,,C] [A,,C]>[A,,A,] [E,G,]2 [E,B,]2 | [B,,B,]2 B,>B, B,A,G,F, | E,>F, G,>A, B,3 [E,E] | %16
w: ~ ~ ~ ~ ~ ~|~ praise the Lord, ~ ~ ~|~ ~ ~ ~ ~ ~|
 [A,E]>[A,E] [A,E]>[A,E] [E,E]2 [E,E]>[E,E] | [A,E]>[A,E] [A,E]>[A,E] [B,E]2 [B,,D]2 | %18
w: ~ ~ ~ ~ ~ ~ ~|~ ~ ~ ~ ~ are|
 E>B, C>C B,2 x2 |] %19
w: bright up there. * *|
V:4
 x2 | x8 | x8 | x4 | (B,,>A,) (G,>F,) | x8 | x8 | x8 | x8 | x6 || x2 | x8 | x8 | x8 | %14
 x2 B,>B, (B,A,) (G,F,) | E,>F, G,>A, B,3 x | x8 | x8 | E,6 x2 |] %19

